X: 147
T: No_71_Song_of_the_Closed_Door.krn
%%abc-version 2.0
%%abcx-abcm2ps-target-version 5.9.1 (29 Sep 2008)
%%abc-creator hum2abc beta
%%abcx-conversion-date 2020/08/10 18:54:57
%%gracespace 0 6 6
%%humdrum-veritas 9293947
%%humdrum-veritas-data 2902647103
%%linebreak <none>
%%barnumbers 0
L: 1/8
M: 3/4
%%staves {1 2}
V: 1 clef=bass
V: 2 clef=bass
K: F
[V:1] [K:clef=bass][M:3/4]E>EE2!fermata!D2 | 
[V:2] [K:clef=bass][M:3/4]G,,G,, G,,G,, G,,G,, | 
[V:1] C>CC2G,3/G,/ ||  
[V:2] z6 ||  
[V:1] [M:2/4]G,4 ||  
[V:2] [M:2/4]z4 ||  
[V:1] [M:3/4]E>EE2!fermata!D2 | 
[V:2] [M:3/4]z6 | 
[V:1] C>CC2G,3/G,/ ||  
[V:2] z6 ||  
[V:1] [M:2/4]G,4 | 
[V:2] [M:2/4]z4 | 
[V:1] CC C/A,3/ | 
[V:2] z4 | 
[V:1] G,>A, (3:2:1G,F,(3:2:1F,/ ||  
[V:2] z4 ||  
[V:1] [M:3/4]F,>G, F,D,C,2 ||  
[V:2] [M:3/4]z6 ||  
[V:1] [M:2/4](3:2:1C,F,(3:2:1F,/F,2 | 
[V:2] [M:2/4]z4 | 
[V:1] (3:2:1A,A,(3:2:1A,/ G,3/A,/ | 
[V:2] z4 | 
[V:1] G,/>A,/G,/F,< F,F,/ | 
[V:2] z4 | 
[V:1] F,4- | 
[V:2] z4 | 
[V:1] F,>C C3/C/ | 
[V:2] z4 | 
[V:1] C2DC | 
[V:2] z4 | 
[V:1] A,>B, A,G, | 
[V:2] z4 | 
[V:1] F,>F, (3:2:1F,D,(3:2:1D,/ | 
[V:2] z4 | 
[V:1] C,>C,C,2 | 
[V:2] z4 | 
[V:1] F,>F,F,2 | 
[V:2] z4 | 
[V:1] (3:2:1A,A,(3:2:1A,/ G,3/A,/ | 
[V:2] z4 | 
[V:1] G,/>A,/G,/F,< F,F,/ | 
[V:2] z4 | 
[V:1] F,4- | 
[V:2] z4 | 
[V:1] F,4 |]  
[V:2] z4 |]  


